documentation/public/assets/images/input-13-do-and-dont-06.svg

<svg width="294" height="96" viewBox="0 0 294 96" fill="none" xmlns="http://www.w3.org/2000/svg">
<rect x="1" y="29" width="292" height="39" rx="3.5" fill="white"/>
<path d="M13.9091 54.5V42.8636H20.9318V44.1136H15.3182V48.0455H20.5682V49.2955H15.3182V53.25H21.0227V54.5H13.9091ZM24.267 54.5909C23.9867 54.5909 23.7462 54.4905 23.5455 54.2898C23.3447 54.089 23.2443 53.8485 23.2443 53.5682C23.2443 53.2879 23.3447 53.0473 23.5455 52.8466C23.7462 52.6458 23.9867 52.5455 24.267 52.5455C24.5473 52.5455 24.7879 52.6458 24.9886 52.8466C25.1894 53.0473 25.2898 53.2879 25.2898 53.5682C25.2898 53.7538 25.2424 53.9242 25.1477 54.0795C25.0568 54.2348 24.9337 54.3598 24.7784 54.4545C24.6269 54.5455 24.4564 54.5909 24.267 54.5909ZM31.2188 57.9545C30.571 57.9545 30.0142 57.8712 29.5483 57.7045C29.0824 57.5417 28.6941 57.3258 28.3835 57.0568C28.0767 56.7917 27.8324 56.5076 27.6506 56.2045L28.7188 55.4545C28.84 55.6136 28.9934 55.7955 29.179 56C29.3646 56.2083 29.6184 56.3883 29.9403 56.5398C30.2661 56.6951 30.6922 56.7727 31.2188 56.7727C31.9233 56.7727 32.5047 56.6023 32.9631 56.2614C33.4214 55.9205 33.6506 55.3864 33.6506 54.6591V52.8864H33.5369C33.4384 53.0455 33.2983 53.2424 33.1165 53.4773C32.9384 53.7083 32.6809 53.9148 32.3438 54.0966C32.0104 54.2746 31.5597 54.3636 30.9915 54.3636C30.2869 54.3636 29.6544 54.197 29.0938 53.8636C28.5369 53.5303 28.0956 53.0455 27.7699 52.4091C27.4479 51.7727 27.2869 51 27.2869 50.0909C27.2869 49.197 27.4441 48.4186 27.7585 47.7557C28.0729 47.089 28.5104 46.5739 29.071 46.2102C29.6316 45.8428 30.2794 45.6591 31.0142 45.6591C31.5824 45.6591 32.0331 45.7538 32.3665 45.9432C32.7036 46.1288 32.9612 46.3409 33.1392 46.5795C33.321 46.8144 33.4612 47.0076 33.5597 47.1591H33.696V45.7727H34.9915V54.75C34.9915 55.5 34.821 56.1098 34.4801 56.5795C34.143 57.053 33.6884 57.3996 33.1165 57.6193C32.5483 57.8428 31.9157 57.9545 31.2188 57.9545ZM31.1733 53.1591C31.7112 53.1591 32.1657 53.036 32.5369 52.7898C32.9081 52.5436 33.1903 52.1894 33.3835 51.7273C33.5767 51.2652 33.6733 50.7121 33.6733 50.0682C33.6733 49.4394 33.5786 48.8845 33.3892 48.4034C33.1998 47.9223 32.9195 47.5455 32.5483 47.2727C32.1771 47 31.7188 46.8636 31.1733 46.8636C30.6051 46.8636 30.1316 47.0076 29.7528 47.2955C29.3778 47.5833 29.0956 47.9697 28.9062 48.4545C28.7206 48.9394 28.6278 49.4773 28.6278 50.0682C28.6278 50.6742 28.7225 51.2102 28.9119 51.6761C29.1051 52.1383 29.3892 52.5019 29.7642 52.767C30.143 53.0284 30.6127 53.1591 31.1733 53.1591ZM38.4233 54.5909C38.143 54.5909 37.9025 54.4905 37.7017 54.2898C37.5009 54.089 37.4006 53.8485 37.4006 53.5682C37.4006 53.2879 37.5009 53.0473 37.7017 52.8466C37.9025 52.6458 38.143 52.5455 38.4233 52.5455C38.7036 52.5455 38.9441 52.6458 39.1449 52.8466C39.3456 53.0473 39.446 53.2879 39.446 53.5682C39.446 53.7538 39.3987 53.9242 39.304 54.0795C39.2131 54.2348 39.09 54.3598 38.9347 54.4545C38.7831 54.5455 38.6127 54.5909 38.4233 54.5909ZM46.3295 54.5V53.4773L50.1705 49.2727C50.6212 48.7803 50.9924 48.3523 51.2841 47.9886C51.5758 47.6212 51.7917 47.2765 51.9318 46.9545C52.0758 46.6288 52.1477 46.2879 52.1477 45.9318C52.1477 45.5227 52.0492 45.1686 51.8523 44.8693C51.6591 44.5701 51.3939 44.339 51.0568 44.1761C50.7197 44.0133 50.3409 43.9318 49.9205 43.9318C49.4735 43.9318 49.0833 44.0246 48.75 44.2102C48.4205 44.392 48.1648 44.6477 47.983 44.9773C47.8049 45.3068 47.7159 45.6932 47.7159 46.1364H46.375C46.375 45.4545 46.5322 44.8561 46.8466 44.3409C47.161 43.8258 47.589 43.4242 48.1307 43.1364C48.6761 42.8485 49.2879 42.7045 49.9659 42.7045C50.6477 42.7045 51.2519 42.8485 51.7784 43.1364C52.3049 43.4242 52.7178 43.8125 53.017 44.3011C53.3163 44.7898 53.4659 45.3333 53.4659 45.9318C53.4659 46.3598 53.3883 46.7784 53.233 47.1875C53.0814 47.5928 52.8163 48.0455 52.4375 48.5455C52.0625 49.0417 51.5417 49.6477 50.875 50.3636L48.2614 53.1591V53.25H53.6705V54.5H46.3295ZM59.8125 54.6591C58.9564 54.6591 58.2273 54.4261 57.625 53.9602C57.0227 53.4905 56.5625 52.8106 56.2443 51.9205C55.9261 51.0265 55.767 49.947 55.767 48.6818C55.767 47.4242 55.9261 46.3504 56.2443 45.4602C56.5663 44.5663 57.0284 43.8845 57.6307 43.4148C58.2367 42.9413 58.964 42.7045 59.8125 42.7045C60.661 42.7045 61.3864 42.9413 61.9886 43.4148C62.5947 43.8845 63.0568 44.5663 63.375 45.4602C63.697 46.3504 63.858 47.4242 63.858 48.6818C63.858 49.947 63.6989 51.0265 63.3807 51.9205C63.0625 52.8106 62.6023 53.4905 62 53.9602C61.3977 54.4261 60.6686 54.6591 59.8125 54.6591ZM59.8125 53.4091C60.661 53.4091 61.3201 53 61.7898 52.1818C62.2595 51.3636 62.4943 50.197 62.4943 48.6818C62.4943 47.6742 62.3864 46.8163 62.1705 46.108C61.9583 45.3996 61.6515 44.8598 61.25 44.4886C60.8523 44.1174 60.3731 43.9318 59.8125 43.9318C58.9716 43.9318 58.3144 44.3466 57.8409 45.1761C57.3674 46.0019 57.1307 47.1705 57.1307 48.6818C57.1307 49.6894 57.2367 50.5455 57.4489 51.25C57.661 51.9545 57.9659 52.4905 58.3636 52.858C58.7652 53.2254 59.2481 53.4091 59.8125 53.4091ZM70.108 42.8636V54.5H68.6989V44.3409H68.6307L65.7898 46.2273V44.7955L68.6989 42.8636H70.108ZM73.8182 54.5L79.0227 44.2045V44.1136H73.0227V42.8636H80.4773V44.1818L75.2955 54.5H73.8182Z" fill="#757575"/>
<rect x="1" y="29" width="292" height="39" rx="3.5" stroke="#545454"/>
<path d="M2.81179 16.5H0.84304L4.42756 6.31818H6.70455L10.294 16.5H8.32528L5.60582 8.40625H5.52628L2.81179 16.5ZM2.87642 12.5078H8.24574V13.9893H2.87642V12.5078ZM14.6442 19.5227C13.9979 19.5227 13.4427 19.4349 12.9787 19.2592C12.5147 19.0869 12.1418 18.8549 11.8601 18.5632C11.5784 18.2715 11.3828 17.9484 11.2734 17.5938L12.8942 17.201C12.9671 17.3501 13.0732 17.4976 13.2124 17.6435C13.3516 17.7926 13.5388 17.9152 13.7741 18.0114C14.0128 18.1108 14.3127 18.1605 14.674 18.1605C15.1844 18.1605 15.607 18.0362 15.9418 17.7876C16.2765 17.5424 16.4439 17.138 16.4439 16.5746V15.1278H16.3544C16.2616 15.3134 16.1257 15.504 15.9467 15.6996C15.7711 15.8951 15.5374 16.0592 15.2457 16.1918C14.9574 16.3243 14.5945 16.3906 14.157 16.3906C13.5703 16.3906 13.0384 16.2531 12.5611 15.978C12.0871 15.6996 11.7093 15.2853 11.4276 14.7351C11.1491 14.1816 11.0099 13.4889 11.0099 12.657C11.0099 11.8184 11.1491 11.1108 11.4276 10.5341C11.7093 9.95407 12.0888 9.51491 12.5661 9.21662C13.0433 8.91501 13.5753 8.7642 14.1619 8.7642C14.6094 8.7642 14.9773 8.84044 15.2656 8.9929C15.5573 9.14205 15.7893 9.32268 15.9616 9.5348C16.134 9.74361 16.2649 9.94081 16.3544 10.1264H16.4538V8.86364H18.2287V16.6243C18.2287 17.2772 18.0729 17.8175 17.7614 18.245C17.4498 18.6726 17.0239 18.9924 16.4837 19.2045C15.9434 19.4167 15.3303 19.5227 14.6442 19.5227ZM14.6591 14.9787C15.0402 14.9787 15.3651 14.8859 15.6335 14.7003C15.902 14.5147 16.1058 14.2479 16.245 13.8999C16.3842 13.5518 16.4538 13.1342 16.4538 12.647C16.4538 12.1664 16.3842 11.7455 16.245 11.3842C16.1091 11.023 15.907 10.7429 15.6385 10.544C15.3733 10.3419 15.0469 10.2408 14.6591 10.2408C14.258 10.2408 13.9233 10.3452 13.6548 10.554C13.3864 10.7628 13.1842 11.0495 13.0483 11.4141C12.9124 11.7753 12.8445 12.1863 12.8445 12.647C12.8445 13.1143 12.9124 13.5237 13.0483 13.875C13.1875 14.223 13.3913 14.4948 13.6598 14.6903C13.9316 14.8826 14.2647 14.9787 14.6591 14.9787ZM23.4538 16.6491C22.6882 16.6491 22.027 16.4901 21.4702 16.1719C20.9167 15.8504 20.4908 15.3963 20.1925 14.8097C19.8942 14.2197 19.745 13.5253 19.745 12.7266C19.745 11.9411 19.8942 11.2517 20.1925 10.6584C20.4941 10.0618 20.915 9.59777 21.4553 9.26633C21.9955 8.93158 22.6302 8.7642 23.3594 8.7642C23.83 8.7642 24.2741 8.84044 24.6918 8.9929C25.1127 9.14205 25.4839 9.37405 25.8054 9.68892C26.1302 10.0038 26.3854 10.4048 26.571 10.892C26.7566 11.3759 26.8494 11.9527 26.8494 12.6222V13.174H20.5902V11.9609H25.1243C25.121 11.6162 25.0464 11.3097 24.9006 11.0412C24.7547 10.7694 24.5509 10.5556 24.2891 10.3999C24.0305 10.2441 23.7289 10.1662 23.3842 10.1662C23.0163 10.1662 22.6932 10.2557 22.4148 10.4347C22.1364 10.6103 21.9193 10.8423 21.7635 11.1307C21.611 11.4157 21.5331 11.7289 21.5298 12.0703V13.1293C21.5298 13.5734 21.611 13.9545 21.7734 14.2727C21.9358 14.5876 22.1629 14.8295 22.4545 14.9986C22.7462 15.1643 23.0876 15.2472 23.4787 15.2472C23.7405 15.2472 23.9775 15.2107 24.1896 15.1378C24.4018 15.0616 24.5857 14.9505 24.7415 14.8047C24.8973 14.6589 25.0149 14.4782 25.0945 14.2628L26.7749 14.4517C26.6688 14.8958 26.4666 15.2836 26.1683 15.6151C25.8733 15.9432 25.4955 16.1984 25.0348 16.3807C24.5741 16.5597 24.0471 16.6491 23.4538 16.6491ZM35.1756 16.6491C34.4299 16.6491 33.7836 16.4851 33.2367 16.157C32.6898 15.8288 32.2656 15.3698 31.964 14.7798C31.6657 14.1899 31.5165 13.5005 31.5165 12.7116C31.5165 11.9228 31.6657 11.2318 31.964 10.6385C32.2656 10.0452 32.6898 9.58452 33.2367 9.25639C33.7836 8.92827 34.4299 8.7642 35.1756 8.7642C35.9213 8.7642 36.5676 8.92827 37.1145 9.25639C37.6614 9.58452 38.084 10.0452 38.3823 10.6385C38.6839 11.2318 38.8347 11.9228 38.8347 12.7116C38.8347 13.5005 38.6839 14.1899 38.3823 14.7798C38.084 15.3698 37.6614 15.8288 37.1145 16.157C36.5676 16.4851 35.9213 16.6491 35.1756 16.6491ZM35.1855 15.2074C35.5899 15.2074 35.928 15.0964 36.1998 14.8743C36.4715 14.6489 36.6737 14.3473 36.8063 13.9695C36.9422 13.5916 37.0101 13.1707 37.0101 12.7067C37.0101 12.2393 36.9422 11.8168 36.8063 11.4389C36.6737 11.0578 36.4715 10.7545 36.1998 10.5291C35.928 10.3037 35.5899 10.1911 35.1855 10.1911C34.7712 10.1911 34.4266 10.3037 34.1515 10.5291C33.8797 10.7545 33.6758 11.0578 33.54 11.4389C33.4074 11.8168 33.3411 12.2393 33.3411 12.7067C33.3411 13.1707 33.4074 13.5916 33.54 13.9695C33.6758 14.3473 33.8797 14.6489 34.1515 14.8743C34.4266 15.0964 34.7712 15.2074 35.1855 15.2074ZM44.2301 8.86364V10.2557H39.7159V8.86364H44.2301ZM40.8445 16.5V8.14276C40.8445 7.62902 40.9505 7.20147 41.1626 6.86008C41.3781 6.5187 41.6664 6.26349 42.0277 6.09446C42.389 5.92543 42.79 5.84091 43.2308 5.84091C43.5424 5.84091 43.8191 5.86577 44.0611 5.91548C44.303 5.9652 44.482 6.00994 44.598 6.04972L44.2401 7.44176C44.1638 7.41856 44.0677 7.39536 43.9517 7.37216C43.8357 7.34564 43.7064 7.33239 43.5639 7.33239C43.2292 7.33239 42.9922 7.41359 42.853 7.57599C42.7171 7.73508 42.6491 7.96378 42.6491 8.26207V16.5H40.8445ZM49.1918 16.5V6.31818H50.9915V10.1264H51.0661C51.1589 9.94081 51.2898 9.74361 51.4588 9.5348C51.6278 9.32268 51.8565 9.14205 52.1449 8.9929C52.4332 8.84044 52.8011 8.7642 53.2486 8.7642C53.8385 8.7642 54.3705 8.91501 54.8445 9.21662C55.3217 9.51491 55.6996 9.95739 55.978 10.544C56.2597 11.1274 56.4006 11.8433 56.4006 12.6918C56.4006 13.5303 56.263 14.2429 55.9879 14.8295C55.7128 15.4162 55.3383 15.8636 54.8643 16.1719C54.3904 16.4801 53.8535 16.6342 53.2536 16.6342C52.8161 16.6342 52.4531 16.5613 52.1648 16.4155C51.8764 16.2696 51.6444 16.094 51.4688 15.8885C51.2964 15.6797 51.1622 15.4825 51.0661 15.2969H50.9616V16.5H49.1918ZM50.9567 12.6818C50.9567 13.1757 51.0263 13.6082 51.1655 13.9794C51.308 14.3506 51.5118 14.6406 51.777 14.8494C52.0455 15.0549 52.3703 15.1577 52.7514 15.1577C53.1491 15.1577 53.4822 15.0516 53.7507 14.8395C54.0192 14.6241 54.2214 14.3307 54.3572 13.9595C54.4964 13.585 54.5661 13.1591 54.5661 12.6818C54.5661 12.2079 54.4981 11.7869 54.3622 11.419C54.2263 11.0511 54.0241 10.7628 53.7557 10.554C53.4872 10.3452 53.1525 10.2408 52.7514 10.2408C52.367 10.2408 52.0405 10.3419 51.772 10.544C51.5036 10.7462 51.2997 11.0296 51.1605 11.3942C51.0246 11.7588 50.9567 12.188 50.9567 12.6818ZM57.9306 16.5V8.86364H59.7303V16.5H57.9306ZM58.8354 7.77983C58.5504 7.77983 58.3051 7.68537 58.0996 7.49645C57.8941 7.30421 57.7914 7.07386 57.7914 6.8054C57.7914 6.53362 57.8941 6.30327 58.0996 6.11435C58.3051 5.92211 58.5504 5.82599 58.8354 5.82599C59.1238 5.82599 59.369 5.92211 59.5712 6.11435C59.7767 6.30327 59.8794 6.53362 59.8794 6.8054C59.8794 7.07386 59.7767 7.30421 59.5712 7.49645C59.369 7.68537 59.1238 7.77983 58.8354 7.77983ZM61.581 16.5V8.86364H63.326V10.1364H63.4055C63.5447 9.69555 63.7834 9.35582 64.1214 9.11719C64.4628 8.87524 64.8523 8.75426 65.2898 8.75426C65.3892 8.75426 65.5002 8.75923 65.6229 8.76918C65.7488 8.7758 65.8532 8.7874 65.9361 8.80398V10.4595C65.8598 10.433 65.7389 10.4098 65.5732 10.3899C65.4107 10.3667 65.2533 10.3551 65.1009 10.3551C64.7727 10.3551 64.4777 10.4264 64.2159 10.5689C63.9574 10.7081 63.7536 10.902 63.6044 11.1506C63.4553 11.3991 63.3807 11.6858 63.3807 12.0107V16.5H61.581ZM71.3551 8.86364V10.2557H66.9652V8.86364H71.3551ZM68.049 7.03409H69.8487V14.2031C69.8487 14.4451 69.8852 14.6307 69.9581 14.7599C70.0343 14.8859 70.1338 14.9721 70.2564 15.0185C70.379 15.0649 70.5149 15.0881 70.6641 15.0881C70.7768 15.0881 70.8795 15.0798 70.9723 15.0632C71.0684 15.0466 71.1413 15.0317 71.1911 15.0185L71.4943 16.4254C71.3982 16.4586 71.2607 16.495 71.0817 16.5348C70.906 16.5746 70.6906 16.5978 70.4354 16.6044C69.9846 16.6177 69.5786 16.5497 69.2173 16.4006C68.8561 16.2481 68.5694 16.0128 68.3572 15.6946C68.1484 15.3764 68.0457 14.9787 68.049 14.5014V7.03409ZM74.824 12.0256V16.5H73.0243V6.31818H74.7843V10.1612H74.8738C75.0527 9.73035 75.3295 9.39062 75.704 9.14205C76.0819 8.89015 76.5624 8.7642 77.1458 8.7642C77.6761 8.7642 78.1384 8.87524 78.5328 9.0973C78.9273 9.31937 79.2322 9.64418 79.4476 10.0717C79.6664 10.4993 79.7757 11.0213 79.7757 11.6378V16.5H77.976V11.9162C77.976 11.4025 77.8435 11.0031 77.5783 10.718C77.3165 10.4297 76.9486 10.2855 76.4746 10.2855C76.1564 10.2855 75.8714 10.3551 75.6195 10.4943C75.3709 10.6302 75.1754 10.8274 75.0328 11.0859C74.8936 11.3445 74.824 11.6577 74.824 12.0256Z" fill="#333333"/>
</svg>

<svg width="294" height="96" fill="none" xmlns="http://www.w3.org/2000/svg"><rect x="1" y="29" width="292" height="39" rx="3.5" fill="#fff"/><path d="M13.9 54.5V42.86h7.03v1.25h-5.61v3.94h5.25v1.25h-5.25v3.95h5.7v1.25h-7.11Zm10.37.1a.98.98 0 0 1-.72-.31.98.98 0 0 1-.3-.72c0-.28.1-.52.3-.72.2-.2.44-.3.72-.3.28 0 .52.1.72.3.2.2.3.44.3.72a1.06 1.06 0 0 1-.51.89.97.97 0 0 1-.51.13Zm6.95 3.35a4.9 4.9 0 0 1-1.67-.25 3.54 3.54 0 0 1-1.9-1.5l1.07-.75c.12.16.27.35.46.55.18.2.44.39.76.54.33.16.75.23 1.28.23.7 0 1.28-.17 1.74-.5.46-.35.7-.88.7-1.61v-1.77h-.12c-.1.16-.24.35-.42.59-.18.23-.44.43-.78.62-.33.17-.78.26-1.35.26a3.5 3.5 0 0 1-3.22-1.95 5.09 5.09 0 0 1-.48-2.32c0-.9.15-1.67.47-2.33a3.46 3.46 0 0 1 3.26-2.1c.56 0 1.01.1 1.35.28.33.19.6.4.77.64.18.23.32.43.42.58h.14v-1.39H35v8.98c0 .75-.18 1.36-.52 1.83s-.8.82-1.36 1.04c-.57.22-1.2.33-1.9.33Zm-.05-4.8c.54 0 1-.11 1.37-.36.37-.25.65-.6.84-1.06.2-.46.3-1.02.3-1.66 0-.63-.1-1.19-.3-1.67a2.5 2.5 0 0 0-.83-1.13c-.37-.27-.83-.4-1.38-.4a2.28 2.28 0 0 0-2.26 1.58 4.48 4.48 0 0 0-.28 1.62c0 .6.1 1.14.28 1.6.2.47.48.83.85 1.1.38.26.85.39 1.41.39Zm7.25 1.44a.98.98 0 0 1-.72-.3.98.98 0 0 1-.3-.72c0-.28.1-.52.3-.72.2-.2.44-.3.72-.3.28 0 .52.1.72.3.2.2.3.44.3.72a1.06 1.06 0 0 1-.51.89.97.97 0 0 1-.5.13Zm7.91-.09v-1.02l3.84-4.2c.45-.5.82-.93 1.11-1.3.3-.36.51-.7.65-1.03.15-.32.22-.66.22-1.02a1.89 1.89 0 0 0-1.1-1.75 2.58 2.58 0 0 0-1.13-.25c-.45 0-.84.1-1.17.28a1.9 1.9 0 0 0-.77.77 2.4 2.4 0 0 0-.26 1.16h-1.34a3.28 3.28 0 0 1 1.76-3 3.87 3.87 0 0 1 1.83-.44c.68 0 1.28.15 1.8.44a3.06 3.06 0 0 1 1.69 2.8c0 .42-.07.84-.23 1.25-.15.4-.41.86-.8 1.36-.37.5-.89 1.1-1.55 1.81l-2.62 2.8v.09h5.41v1.25h-7.34Zm13.48.16c-.85 0-1.58-.23-2.19-.7a4.37 4.37 0 0 1-1.38-2.04 9.7 9.7 0 0 1-.47-3.24c0-1.26.16-2.33.47-3.22a4.4 4.4 0 0 1 1.4-2.05 3.4 3.4 0 0 1 2.17-.7c.85 0 1.58.23 2.18.7.6.47 1.07 1.16 1.38 2.05.33.89.49 1.96.49 3.22a9.7 9.7 0 0 1-.48 3.24A4.37 4.37 0 0 1 62 53.96c-.6.47-1.33.7-2.19.7Zm0-1.25c.85 0 1.51-.41 1.98-1.23.47-.82.7-1.98.7-3.5 0-1-.1-1.86-.32-2.57a3.53 3.53 0 0 0-.92-1.62c-.4-.37-.88-.56-1.44-.56-.84 0-1.5.42-1.97 1.25-.47.82-.7 1.99-.7 3.5a9 9 0 0 0 .3 2.57c.22.7.53 1.24.92 1.6.4.38.89.56 1.45.56Zm10.3-10.55V54.5H68.7V44.34h-.07l-2.84 1.89V44.8l2.9-1.94h1.42Zm3.7 11.64 5.21-10.3v-.09h-6v-1.25h7.46v1.32L75.3 54.5h-1.48Z" fill="#757575"/><rect x="1" y="29" width="292" height="39" rx="3.5" stroke="#545454"/><path d="M2.81 16.5H.84L4.43 6.32H6.7l3.6 10.18H8.32L5.6 8.4h-.08L2.8 16.5Zm.07-4h5.37V14H2.88v-1.5Zm11.76 7.02a4.7 4.7 0 0 1-1.66-.26c-.47-.17-.84-.4-1.12-.7a2.4 2.4 0 0 1-.59-.97l1.62-.39c.08.15.18.3.32.44.14.15.33.28.56.37.24.1.54.15.9.15.51 0 .94-.12 1.27-.37.34-.25.5-.65.5-1.22v-1.44h-.09a2.6 2.6 0 0 1-.4.57c-.18.2-.41.36-.7.5a3.14 3.14 0 0 1-2.68-.21c-.48-.29-.86-.7-1.14-1.25a4.6 4.6 0 0 1-.42-2.08c0-.84.14-1.55.42-2.13A2.93 2.93 0 0 1 15.27 9a2.29 2.29 0 0 1 1.08 1.14h.1V8.86h1.78v7.76c0 .66-.16 1.2-.47 1.63a2.8 2.8 0 0 1-1.28.95 5 5 0 0 1-1.84.32Zm.02-4.54c.38 0 .7-.1.97-.28.27-.19.48-.45.62-.8.13-.35.2-.77.2-1.25s-.07-.9-.2-1.27a1.8 1.8 0 0 0-.61-.84c-.27-.2-.6-.3-.98-.3-.4 0-.74.1-1 .31-.27.21-.48.5-.61.86-.14.37-.2.78-.2 1.24 0 .46.06.87.2 1.22s.34.62.61.82c.27.2.6.29 1 .29Zm8.8 1.67c-.77 0-1.43-.16-1.99-.48a3.23 3.23 0 0 1-1.28-1.36 4.56 4.56 0 0 1-.45-2.08c0-.79.15-1.48.45-2.07a3.38 3.38 0 0 1 3.17-1.9c.47 0 .91.08 1.33.23a3.17 3.17 0 0 1 1.88 1.9c.19.49.28 1.06.28 1.73v.55h-6.26v-1.2h4.53c0-.35-.07-.66-.22-.93a1.63 1.63 0 0 0-.61-.64 1.72 1.72 0 0 0-.9-.23c-.37 0-.7.09-.98.26-.27.18-.5.41-.65.7a2 2 0 0 0-.23.94v1.06c0 .44.08.82.24 1.14.17.32.4.56.68.73a2.25 2.25 0 0 0 1.74.14c.21-.08.4-.19.55-.34.16-.14.27-.32.35-.54l1.68.2c-.1.44-.3.82-.6 1.16a3 3 0 0 1-1.14.76c-.46.18-.98.27-1.58.27Zm11.72 0a3.7 3.7 0 0 1-1.94-.5 3.34 3.34 0 0 1-1.28-1.37 4.53 4.53 0 0 1-.44-2.07c0-.79.15-1.48.44-2.07.3-.6.73-1.06 1.28-1.38a3.7 3.7 0 0 1 1.94-.5c.74 0 1.39.17 1.93.5.55.32.97.79 1.27 1.38.3.6.45 1.28.45 2.07 0 .79-.15 1.48-.45 2.07-.3.59-.72 1.05-1.27 1.38-.54.33-1.19.49-1.93.49Zm0-1.44c.41 0 .75-.11 1.02-.34a2 2 0 0 0 .6-.9 3.85 3.85 0 0 0 .01-2.53 2 2 0 0 0-.61-.91 1.54 1.54 0 0 0-1.01-.34c-.42 0-.76.11-1.04.34-.27.22-.47.53-.61.9a3.95 3.95 0 0 0 0 2.54c.14.38.34.68.61.9.28.23.62.34 1.04.34Zm9.05-6.35v1.4h-4.51v-1.4h4.51Zm-3.39 7.64V8.14c0-.51.11-.94.32-1.28.22-.34.5-.6.87-.77a2.8 2.8 0 0 1 1.2-.25 4.15 4.15 0 0 1 1.37.21l-.36 1.4a3.12 3.12 0 0 0-.68-.12c-.33 0-.57.08-.7.25-.14.16-.21.38-.21.68v8.24h-1.8Zm8.35 0V6.32H51v3.8h.08c.09-.18.22-.38.39-.59.17-.2.4-.39.68-.54a2.91 2.91 0 0 1 3.83 1.55c.29.59.43 1.3.43 2.15a5 5 0 0 1-.41 2.14 2.89 2.89 0 0 1-2.73 1.8c-.44 0-.8-.07-1.1-.21a2.21 2.21 0 0 1-.7-.53 3.9 3.9 0 0 1-.4-.6h-.1v1.21H49.2Zm1.77-3.82c0 .5.07.93.2 1.3.15.37.35.66.62.87.27.2.59.3.97.3.4 0 .73-.1 1-.31.27-.22.47-.5.6-.88.15-.38.22-.8.22-1.28 0-.47-.07-.9-.2-1.26a1.9 1.9 0 0 0-.61-.87c-.27-.2-.6-.3-1-.3s-.72.1-.99.3c-.27.2-.47.48-.61.84-.14.37-.2.8-.2 1.3Zm6.97 3.82V8.86h1.8v7.64h-1.8Zm.9-8.72c-.28 0-.52-.1-.73-.28a.91.91 0 0 1-.3-.7c0-.27.1-.5.3-.69.2-.19.45-.28.74-.28.28 0 .53.1.73.28.2.2.3.42.3.7 0 .26-.1.5-.3.69-.2.19-.45.28-.73.28Zm2.75 8.72V8.86h1.75v1.28h.08a1.9 1.9 0 0 1 1.88-1.39 4.15 4.15 0 0 1 .65.05v1.66a3.34 3.34 0 0 0-.84-.1c-.33 0-.62.07-.88.2a1.56 1.56 0 0 0-.84 1.45v4.49h-1.8Zm9.78-7.64v1.4h-4.4v-1.4h4.4Zm-3.31-1.83h1.8v7.17c0 .25.04.43.1.56.08.13.18.21.3.26.13.04.26.07.41.07a1.76 1.76 0 0 0 .53-.07l.3 1.4a4 4 0 0 1-1.05.18 2.8 2.8 0 0 1-1.22-.2 1.9 1.9 0 0 1-.86-.7 2.1 2.1 0 0 1-.31-1.2V7.03Zm6.77 5v4.47h-1.8V6.32h1.76v3.84h.1c.17-.43.45-.77.82-1.02.38-.25.86-.38 1.45-.38.53 0 .99.12 1.38.34.4.22.7.54.92.97.22.43.33.95.33 1.57v4.86h-1.8v-4.58c0-.52-.14-.92-.4-1.2a1.42 1.42 0 0 0-1.1-.43c-.32 0-.6.07-.86.2-.25.14-.44.34-.59.6-.14.25-.2.57-.2.94Z" fill="#333"/></svg>
